X: 13685
T: Football Loonys, The
R: jig
M: 6/8
K: Amixolydian
a2 f e2 f|d3 BAB|d3 BAB|faf e3|
a2 f efe||d3 BAB|d3 BAB|BdB A3:|

